X:1
T:Smith's -- Reel
R:reel
N:AKA Kitty's Wedding Hornpipe
N:350
B:Ryan's Mammoth Collection
Z:Contributed by Ray Davies,  ray:davies99.freeserve.co.uk
M:2/4
L:1/16
K:D
u{g}(fe)|\
vd2vBud A2FA | {c}BAF"4"A D2{F}ED | B,"4"DA,"4"D "0"(DF)(BF) | \
AADF E2{g}(fe) |
d2Bd A2FA | {c}BAF"4"A D2{F}(ED) | B,"4"DA,"4"D (DF)(BA) | \
F"4"AE"4"A D2:|
|:u(fg)|\
vafed bafd | Adfd "4".e(dBd) | DFAd FAde | fadf e2(fg) |
 afed bafd | Adfd "4".e(dB)d | DFAd FAdf | eAc"4"e d2 :|
